docs/assets/zinggg-white-dark-blue.svg

<svg width="151" height="43" viewBox="0 0 151 43" fill="none" xmlns="http://www.w3.org/2000/svg">
<path d="M22.4226 9.31599V6.72046H5.12044V12.8225H12.5774L4.33008 24.9751V27.3643H22.8006V20.7638H14.5533L22.4226 9.31599Z" fill="#1F3D73"/>
<path d="M33.6418 6.70282H25.8928V27.3468H33.6418V6.70282Z" fill="#1F3D73"/>
<path d="M50.8752 6.2223C48.6931 6.18792 46.0987 6.92705 44.3461 8.97253L44.0025 6.72078H37.1641V27.3647H44.7928V16.5013C44.7928 13.7854 46.511 12.5306 48.3495 12.5306C49.7756 12.5306 51.2361 13.4073 51.2361 15.9512V27.3647H58.9679V15.9169C58.9679 8.55999 55.2395 6.27387 50.8752 6.2223Z" fill="#1F3D73"/>
<path d="M79.6556 4.00516C78.9855 4.88179 78.1436 5.93032 77.4391 6.84133C76.0646 6.32566 74.6213 6.06783 73.1608 6.05064C66.752 6.05064 61.6318 10.1416 61.6318 16.6218C61.6318 23.0161 66.2022 27.0211 73.1608 27.0211C75.9615 27.0211 76.8893 28.2759 76.8893 29.7713C76.8893 31.7825 75.0852 32.745 73.0749 32.745C71.0303 32.745 69.0888 32.0403 69.1747 28.826H61.9239C61.5116 35.1343 65.6524 38.9846 73.0749 38.9846C78.9855 38.9846 84.8101 36.475 84.8101 29.7885C84.8101 28.6541 84.5524 25.732 80.738 23.5662C83.1263 21.8473 84.4665 19.3033 84.5009 16.7078C84.604 14.6623 83.8995 12.6684 82.525 11.1557L85.2225 7.9758L79.6556 4.00516ZM73.1608 20.6784C70.8928 20.6784 69.1403 19.097 69.1403 16.6218C69.1403 13.8544 70.8928 12.359 73.1608 12.359C75.4288 12.359 77.0611 14.2841 77.0611 16.6218C77.0611 19.3721 75.2227 20.6784 73.1608 20.6784Z" fill="#1F3D73"/>
<path d="M115.136 4.00516C114.466 4.88179 113.624 5.93032 112.92 6.84133C111.545 6.32566 110.102 6.06783 108.641 6.05064C102.233 6.05064 97.1123 10.1416 97.1123 16.6218C97.1123 23.0161 101.683 27.0211 108.641 27.0211C111.442 27.0211 112.37 28.2759 112.37 29.7713C112.37 31.7825 110.566 32.745 108.555 32.745C106.494 32.745 104.569 32.0403 104.655 28.826H97.4044C96.992 35.1343 101.133 38.9846 108.555 38.9846C114.466 38.9846 120.291 36.475 120.291 29.7885C120.291 28.6541 120.033 25.732 116.219 23.5662C118.607 21.8473 119.947 19.3033 119.981 16.7078C120.085 14.6623 119.38 12.6684 118.006 11.1557L120.686 7.9758L115.136 4.00516ZM108.641 20.6784C106.373 20.6784 104.621 19.097 104.621 16.6218C104.604 13.8544 106.373 12.359 108.641 12.359C110.909 12.359 112.542 14.2841 112.542 16.6218C112.542 19.3721 110.703 20.6784 108.641 20.6784Z" fill="#1F3D73"/>
<path d="M142.025 23.5662C144.414 21.8473 145.754 19.3033 145.788 16.7078C145.891 14.6623 145.187 12.6684 143.812 11.1557L146.493 7.9758L140.943 4.00516C140.273 4.88179 139.431 5.93032 138.726 6.84133C137.352 6.32566 135.909 6.06783 134.448 6.05064C128.039 6.05064 122.919 10.1416 122.919 16.6218C122.919 23.0161 127.489 27.0211 134.448 27.0211C137.249 27.0211 138.177 28.2759 138.177 29.7713C138.177 31.7825 136.372 32.745 134.362 32.745C132.3 32.745 130.376 32.0403 130.462 28.826H123.211C122.799 35.1343 126.94 38.9846 134.362 38.9846C140.273 38.9846 146.097 36.475 146.097 29.7885C146.097 28.6541 145.84 25.732 142.025 23.5662ZM134.448 20.6784C132.18 20.6784 130.427 19.097 130.427 16.6218C130.427 13.8544 132.18 12.359 134.448 12.359C136.716 12.359 138.348 14.2841 138.348 16.6218C138.348 19.3721 136.51 20.6784 134.448 20.6784Z" fill="#1F3D73"/>
<path opacity="0.99" d="M90.6174 20.5069C95.7892 20.5069 95.8236 12.428 90.6174 12.428C85.4457 12.428 85.5316 20.5069 90.6174 20.5069Z" fill="#2F73EA"/>
</svg>

<svg xmlns="http://www.w3.org/2000/svg" fill="none" viewBox="0 0 151 43"><path fill="#1F3D73" d="M22.423 9.316V6.72H5.12v6.103h7.457L4.33 24.974v2.39H22.8v-6.601h-8.247l7.87-11.448zM33.642 6.703h-7.75v20.644h7.75V6.703zM50.875 6.222c-2.182-.034-4.776.705-6.529 2.75l-.343-2.251h-6.839v20.644h7.629V16.5c0-2.716 1.718-3.97 3.556-3.97 1.427 0 2.887.876 2.887 3.42v11.414h7.732V15.917c0-7.357-3.729-9.643-8.093-9.695zM79.656 4.005c-.67.877-1.512 1.925-2.217 2.836a12.57 12.57 0 0 0-4.278-.79c-6.409 0-11.53 4.09-11.53 10.57 0 6.395 4.571 10.4 11.53 10.4 2.8 0 3.728 1.255 3.728 2.75 0 2.011-1.804 2.974-3.814 2.974-2.045 0-3.986-.705-3.9-3.919h-7.251c-.412 6.308 3.728 10.159 11.15 10.159 5.912 0 11.736-2.51 11.736-9.197 0-1.134-.258-4.056-4.072-6.222 2.388-1.719 3.728-4.263 3.763-6.858a7.665 7.665 0 0 0-1.976-5.552l2.697-3.18-5.566-3.97zM73.16 20.678c-2.268 0-4.02-1.581-4.02-4.056 0-2.768 1.752-4.263 4.02-4.263s3.9 1.925 3.9 4.263c0 2.75-1.838 4.056-3.9 4.056zM115.136 4.005c-.67.877-1.512 1.925-2.216 2.836a12.573 12.573 0 0 0-4.279-.79c-6.408 0-11.529 4.09-11.529 10.57 0 6.395 4.571 10.4 11.529 10.4 2.801 0 3.729 1.255 3.729 2.75 0 2.011-1.804 2.974-3.815 2.974-2.061 0-3.986-.705-3.9-3.919h-7.25c-.413 6.308 3.728 10.159 11.15 10.159 5.911 0 11.736-2.51 11.736-9.197 0-1.134-.258-4.056-4.072-6.222 2.388-1.719 3.728-4.263 3.762-6.858a7.662 7.662 0 0 0-1.975-5.552l2.68-3.18-5.55-3.97zm-6.495 16.673c-2.268 0-4.02-1.581-4.02-4.056-.017-2.768 1.752-4.263 4.02-4.263s3.901 1.925 3.901 4.263c0 2.75-1.839 4.056-3.901 4.056zM142.025 23.566c2.389-1.719 3.729-4.263 3.763-6.858a7.663 7.663 0 0 0-1.976-5.552l2.681-3.18-5.55-3.97c-.67.876-1.512 1.924-2.217 2.835a12.563 12.563 0 0 0-4.278-.79c-6.409 0-11.529 4.09-11.529 10.57 0 6.395 4.57 10.4 11.529 10.4 2.801 0 3.729 1.255 3.729 2.75 0 2.011-1.805 2.974-3.815 2.974-2.062 0-3.986-.705-3.9-3.919h-7.251c-.412 6.308 3.729 10.159 11.151 10.159 5.911 0 11.735-2.51 11.735-9.197 0-1.134-.257-4.056-4.072-6.222zm-7.577-2.888c-2.268 0-4.021-1.581-4.021-4.056 0-2.768 1.753-4.263 4.021-4.263s3.9 1.925 3.9 4.263c0 2.75-1.838 4.056-3.9 4.056z"/><path fill="#2F73EA" d="M90.617 20.507c5.172 0 5.207-8.079 0-8.079-5.171 0-5.085 8.079 0 8.079z" opacity=".99"/></svg>
